germany/municipalities/07143285.svg

<?xml version="1.0" encoding="UTF-8" standalone="no"?>
<!-- Created with Inkscape (http://www.inkscape.org/) -->

<svg
   xmlns:dc="http://purl.org/dc/elements/1.1/"
   xmlns:cc="http://creativecommons.org/ns#"
   xmlns:rdf="http://www.w3.org/1999/02/22-rdf-syntax-ns#"
   xmlns:svg="http://www.w3.org/2000/svg"
   xmlns="http://www.w3.org/2000/svg"
   xmlns:sodipodi="http://sodipodi.sourceforge.net/DTD/sodipodi-0.dtd"
   xmlns:inkscape="http://www.inkscape.org/namespaces/inkscape"
   width="136.22083mm"
   height="157.86383mm"
   viewBox="0 0 136.22083 157.86383"
   version="1.1"
   id="svg1113"
   inkscape:version="0.92.5 (2060ec1f9f, 2020-04-08)"
   sodipodi:docname="DEU Rehe COA.svg">
  <defs
     id="defs1107">
    <inkscape:path-effect
       effect="spiro"
       id="path-effect1126"
       is_visible="true" />
    <inkscape:path-effect
       effect="spiro"
       id="path-effect1014"
       is_visible="true" />
    <inkscape:path-effect
       effect="spiro"
       id="path-effect6437"
       is_visible="true" />
    <inkscape:path-effect
       effect="spiro"
       id="path-effect6414"
       is_visible="true" />
    <inkscape:path-effect
       effect="spiro"
       id="path-effect6437-8"
       is_visible="true" />
    <inkscape:path-effect
       effect="spiro"
       id="path-effect1014-8"
       is_visible="true" />
    <inkscape:path-effect
       effect="spiro"
       id="path-effect1126-4"
       is_visible="true" />
  </defs>
  <sodipodi:namedview
     id="base"
     pagecolor="#ffffff"
     bordercolor="#666666"
     borderopacity="1.0"
     inkscape:pageopacity="0.0"
     inkscape:pageshadow="2"
     inkscape:zoom="1.3290858"
     inkscape:cx="257.42519"
     inkscape:cy="298.32534"
     inkscape:document-units="mm"
     inkscape:current-layer="layer1"
     showgrid="false"
     inkscape:window-width="1920"
     inkscape:window-height="1046"
     inkscape:window-x="-11"
     inkscape:window-y="-11"
     inkscape:window-maximized="1"
     inkscape:snap-nodes="true"
     fit-margin-top="0"
     fit-margin-left="0"
     fit-margin-right="0"
     fit-margin-bottom="0"
     inkscape:snap-midpoints="true"
     inkscape:snap-smooth-nodes="true" />
  <metadata
     id="metadata1110">
    <rdf:RDF>
      <cc:Work
         rdf:about="">
        <dc:format>image/svg+xml</dc:format>
        <dc:type
           rdf:resource="http://purl.org/dc/dcmitype/StillImage" />
        <dc:title />
      </cc:Work>
    </rdf:RDF>
  </metadata>
  <g
     inkscape:label="Ebene 1"
     inkscape:groupmode="layer"
     id="layer1"
     transform="translate(67.744966,-87.137055)">
    <path
       style="fill:#ffd700;fill-opacity:1;fill-rule:evenodd;stroke:none;stroke-width:1.32291663;stroke-linecap:round;stroke-linejoin:round;stroke-miterlimit:4;stroke-dasharray:none;stroke-opacity:1"
       inkscape:connector-curvature="0"
       d="m 67.814405,87.798512 -0.30839,93.480138 C 66.004615,218.81962 36.340164,244.31841 0.36544375,244.33943 -35.576896,244.29333 -65.252466,218.78389 -66.775126,181.27865 l -0.30838,-93.480138 H 0.36383175 Z"
       id="path10563-0-6-2-6-2"
       sodipodi:nodetypes="ccccccc" />
    <path
       style="opacity:1;fill:#009900;fill-opacity:1;fill-rule:evenodd;stroke:#000000;stroke-width:5;stroke-linecap:round;stroke-linejoin:round;stroke-miterlimit:4;stroke-dasharray:none;stroke-opacity:1;paint-order:markers fill stroke"
       d="M 257.41992 2.5 L 257.41992 594.15039 C 257.42188 594.15039 257.42382 594.15039 257.42578 594.15039 C 393.39323 594.07094 505.51096 497.69768 511.18555 355.81055 L 512.34961 2.5 L 257.41992 2.5 z "
       transform="matrix(0.26458333,0,0,0.26458333,-67.744966,87.137055)"
       id="rect6045" />
    <path
       inkscape:connector-curvature="0"
       style="opacity:1;fill:#0033ff;fill-opacity:1;fill-rule:evenodd;stroke:#000000;stroke-width:1.32291663;stroke-linecap:round;stroke-linejoin:round;stroke-miterlimit:4;stroke-dasharray:none;stroke-opacity:1;paint-order:markers fill stroke"
       d="m -11.573419,87.798513 -0.299725,90.883337 c -0.91717,22.93297 -12.345112,41.37062 -29.300019,52.25314 11.460467,8.5452 25.905243,13.38399 41.53699784,13.40435 V 87.798513 Z"
       id="rect6063" />
    <path
       inkscape:connector-curvature="0"
       style="opacity:1;fill:#ffffff;fill-opacity:1;fill-rule:evenodd;stroke:#000000;stroke-width:1.32291663;stroke-linecap:round;stroke-linejoin:round;stroke-miterlimit:4;stroke-dasharray:none;stroke-opacity:1;paint-order:markers fill stroke"
       d="m 12.30108,87.798513 0.29973,90.883337 c 0.91717,22.93297 12.34511,41.37062 29.30002,52.25315 -11.46047,8.5452 -25.90525,13.38398 -41.537,13.40435 V 87.798513 Z"
       id="rect6063-6" />
    <path
       style="fill:none;fill-rule:evenodd;stroke:#000000;stroke-width:1.32291663;stroke-linecap:round;stroke-linejoin:round;stroke-miterlimit:4;stroke-dasharray:none;stroke-opacity:1"
       inkscape:connector-curvature="0"
       d="m 67.814407,87.798513 -0.30839,93.480137 c -1.5014,37.54097 -31.16585,63.03976 -67.14057042,63.06078 C -35.576898,244.29333 -65.252468,218.78389 -66.775128,181.27865 l -0.30838,-93.480137 H 0.36383458 Z"
       id="path10563-0-6-2-6"
       sodipodi:nodetypes="ccccccc" />
    <path
       inkscape:connector-curvature="0"
       style="opacity:1;fill:#ffffff;fill-opacity:1;fill-rule:evenodd;stroke:none;stroke-width:0.26458332;stroke-linecap:round;stroke-linejoin:round;stroke-miterlimit:4;stroke-dasharray:none;stroke-opacity:1;paint-order:markers fill stroke"
       d="m 16.92639,135.30672 v 21.11034 h 21.11034 v -1.96732 h -2.317687 a 18.902935,18.902933 0 0 0 -0.679545,-3.40651 l 2.143022,-0.88728 -1.505337,-3.63492 -2.13682,0.88522 a 18.902935,18.902933 0 0 0 -1.938898,-2.882 l 1.643309,-1.64383 -2.781742,-2.78174 -1.640211,1.6397 a 18.902935,18.902933 0 0 0 -2.891813,-1.92082 l 0.891421,-2.15129 -3.634923,-1.50585 -0.888833,2.14716 a 18.902935,18.902933 0 0 0 -3.40496,-0.67283 v -2.32803 z m 45.022577,0 v 2.32803 a 18.902935,18.902933 0 0 0 -3.404961,0.67283 l -0.889352,-2.14716 -3.634403,1.50585 0.890901,2.15129 a 18.902935,18.902933 0 0 0 -2.891813,1.92082 l -1.639695,-1.6397 -2.782258,2.78174 1.643828,1.64383 a 18.902935,18.902933 0 0 0 -1.938901,2.882 l -2.13682,-0.88522 -1.505853,3.63492 2.143022,0.88728 a 18.902935,18.902933 0 0 0 -0.679545,3.40651 h -2.317171 v 1.96732 h 21.110341 v -21.11034 z m -41.424347,9.79889 a 11.874125,11.874124 0 0 1 7.702889,7.71322 H 20.52462 Z m 39.792921,0 v 7.71322 h -7.702373 a 11.874125,11.874124 0 0 1 7.702373,-7.71322 z"
       id="path6124-9" />
    <path
       style="opacity:1;fill:#ffd700;fill-opacity:1;fill-rule:evenodd;stroke:none;stroke-width:0.99999994;stroke-linecap:round;stroke-linejoin:round;stroke-miterlimit:4;stroke-dasharray:none;stroke-opacity:1;paint-order:markers fill stroke"
       d="M 385.22656 137.84766 A 124.22442 124.22442 0 0 0 316.60938 175.93359 L 338.89258 175.93359 A 108.81249 108.81249 0 0 1 385.22656 153.57812 L 385.22656 137.84766 z M 430.80859 137.92188 L 430.80859 153.51562 A 108.81249 108.81249 0 0 1 477.23047 175.93359 L 499.42578 175.93359 A 124.22442 124.22442 0 0 0 430.80859 137.92188 z M 430.80859 158.93945 L 430.80859 172.26367 A 90.657551 90.657551 0 0 1 454.50781 182.12305 L 476.19727 182.12305 A 103.49806 103.49806 0 0 0 430.80859 158.93945 z M 385.22656 159.01953 A 103.49806 103.49806 0 0 0 339.83789 182.12305 L 361.58008 182.12305 A 90.657551 90.657551 0 0 1 385.22656 172.22266 L 385.22656 159.01953 z "
       transform="matrix(0.26458333,0,0,0.26458333,-67.744966,87.137055)"
       id="path6333" />
    <g
       id="g6410"
       transform="translate(-0.275885,-0.13126)" />
    <path
       style="opacity:1;fill:#ffd700;fill-opacity:1;fill-rule:evenodd;stroke:#ffd700;stroke-width:0.99999994;stroke-linecap:round;stroke-linejoin:round;stroke-miterlimit:4;stroke-dasharray:none;stroke-opacity:1;paint-order:markers fill stroke"
       d="M 393.34961 152.03711 A 12.595116 4.9980616 51.291243 0 0 391.84375 152.52148 A 12.595116 4.9980616 51.291243 0 0 395.82031 165.47656 A 12.595116 4.9980616 51.291243 0 0 407.59766 172.17969 A 12.595116 4.9980616 51.291243 0 0 403.62109 159.22461 A 12.595116 4.9980616 51.291243 0 0 393.34961 152.03711 z M 424.28516 152.03711 A 4.9980616 12.595116 38.708757 0 0 414.01367 159.22461 A 4.9980616 12.595116 38.708757 0 0 410.03711 172.17969 A 4.9980616 12.595116 38.708757 0 0 421.81445 165.47656 A 4.9980616 12.595116 38.708757 0 0 425.79102 152.52148 A 4.9980616 12.595116 38.708757 0 0 424.28516 152.03711 z M 393.34961 172.89453 A 12.595116 4.9980616 51.291243 0 0 391.84375 173.37891 A 12.595116 4.9980616 51.291243 0 0 395.82031 186.33398 A 12.595116 4.9980616 51.291243 0 0 407.59766 193.03711 A 12.595116 4.9980616 51.291243 0 0 403.62109 180.08203 A 12.595116 4.9980616 51.291243 0 0 393.34961 172.89453 z M 424.28516 172.89453 A 4.9980616 12.595116 38.708757 0 0 414.01367 180.08203 A 4.9980616 12.595116 38.708757 0 0 410.03711 193.03711 A 4.9980616 12.595116 38.708757 0 0 421.81445 186.33398 A 4.9980616 12.595116 38.708757 0 0 425.79102 173.37891 A 4.9980616 12.595116 38.708757 0 0 424.28516 172.89453 z M 393.34961 193.75391 A 12.595116 4.9980616 51.291243 0 0 391.84375 194.23633 A 12.595116 4.9980616 51.291243 0 0 395.82031 207.19141 A 12.595116 4.9980616 51.291243 0 0 407.59766 213.89648 A 12.595116 4.9980616 51.291243 0 0 403.62109 200.93945 A 12.595116 4.9980616 51.291243 0 0 393.34961 193.75391 z M 424.28516 193.75391 A 4.9980616 12.595116 38.708757 0 0 414.01367 200.93945 A 4.9980616 12.595116 38.708757 0 0 410.03711 213.89648 A 4.9980616 12.595116 38.708757 0 0 421.81445 207.19141 A 4.9980616 12.595116 38.708757 0 0 425.79102 194.23633 A 4.9980616 12.595116 38.708757 0 0 424.28516 193.75391 z M 395.38867 213.56836 C 396.4531 218.07775 398.07141 222.45635 400.19531 226.57422 C 401.73143 229.55241 403.5306 232.39491 405.56641 235.05664 L 405.56641 262.76367 L 408.81836 262.76367 L 412.07031 262.76367 L 412.07031 235.05664 C 414.10616 232.39491 415.90529 229.55241 417.44141 226.57422 C 419.56535 222.45635 421.18358 218.07775 422.24805 213.56836 C 420.18745 216.17979 417.63129 218.39772 414.75586 220.07031 C 412.88998 221.15568 410.89109 222.01263 408.81836 222.61523 C 406.74559 222.01263 404.7467 221.15568 402.88086 220.07031 C 400.00547 218.39772 397.44923 216.17979 395.38867 213.56836 z "
       transform="matrix(0.26458333,0,0,0.26458333,-67.744966,87.137055)"
       id="path939" />
    <path
       style="fill:none;stroke:#ffd700;stroke-width:1.05833328;stroke-linecap:butt;stroke-linejoin:miter;stroke-miterlimit:4;stroke-dasharray:none;stroke-opacity:1"
       d="M 40.42134,128.10059 V 109.69273"
       id="path1035"
       inkscape:connector-curvature="0" />
    <path
       style="fill:none;stroke:#ffd700;stroke-width:1.05833328;stroke-linecap:butt;stroke-linejoin:miter;stroke-miterlimit:4;stroke-dasharray:none;stroke-opacity:1"
       d="M 42.53719,126.98978 V 109.69273"
       id="path1035-9"
       inkscape:connector-curvature="0" />
    <path
       style="fill:none;stroke:#ffd700;stroke-width:1.05833328;stroke-linecap:butt;stroke-linejoin:miter;stroke-miterlimit:4;stroke-dasharray:none;stroke-opacity:1"
       d="M 38.30549,126.98978 V 109.69273"
       id="path1035-9-9"
       inkscape:connector-curvature="0" />
    <path
       style="fill:none;stroke:#ffd700;stroke-width:1.05833328;stroke-linecap:butt;stroke-linejoin:miter;stroke-miterlimit:4;stroke-dasharray:none;stroke-opacity:1"
       d="M 44.4679,125.87896 V 109.69273"
       id="path1035-9-0"
       inkscape:connector-curvature="0" />
    <path
       style="fill:none;stroke:#ffd700;stroke-width:1.05833328;stroke-linecap:butt;stroke-linejoin:miter;stroke-miterlimit:4;stroke-dasharray:none;stroke-opacity:1"
       d="M 36.37479,125.87896 V 109.69273"
       id="path1035-9-0-8"
       inkscape:connector-curvature="0" />
    <rect
       style="opacity:1;fill:#0033ff;fill-opacity:1;fill-rule:evenodd;stroke:#ffd700;stroke-width:1.32291663;stroke-linecap:round;stroke-linejoin:round;stroke-miterlimit:4;stroke-dasharray:none;stroke-opacity:1;paint-order:markers fill stroke"
       id="rect1122-3"
       width="47.15313"
       height="21.08909"
       x="-63.037735"
       y="135.39845" />
    <path
       style="fill:#0033ff;stroke:#ffd700;stroke-width:1.32291663;stroke-linecap:round;stroke-linejoin:round;stroke-miterlimit:4;stroke-dasharray:none;stroke-opacity:1;fill-opacity:1"
       d="m -41.94189,105.3871 v 3.853 h -1.52084 v 8.21242 h -1.21698 v 4.15685 h -6.48901 c -1.70777,1.70769 -3.36434,3.46642 -4.96765,5.27255 -2.42659,2.73353 -4.73019,5.5758 -6.90139,8.51626 h 23.57634 23.576845 c -2.171199,-2.94046 -4.474799,-5.78273 -6.901388,-8.51626 -1.603309,-1.80613 -3.260389,-3.56486 -4.968171,-5.27255 h -6.489006 v -4.15685 h -1.21646 v -8.21242 h -1.52084 v -3.853 h -2.48098 z"
       id="path1124-3"
       inkscape:connector-curvature="0" />
    <path
       style="fill:#0033ff;stroke:#ffd700;stroke-width:1.05833333;stroke-linecap:butt;stroke-linejoin:round;stroke-miterlimit:4;stroke-dasharray:none;stroke-opacity:1;fill-opacity:1"
       d="m -62.88222,129.92339 h 46.842108"
       id="path1147-9"
       inkscape:connector-curvature="0" />
    <path
       style="opacity:1;fill:#ffd700;fill-opacity:1;fill-rule:evenodd;stroke:#ffd700;stroke-width:0.26458332;stroke-linecap:round;stroke-linejoin:round;stroke-miterlimit:4;stroke-dasharray:none;stroke-opacity:1;paint-order:markers fill stroke"
       d="m -57.2823,140.15966 v 5.13508 h 5.27771 v -5.13508 z m 10.12135,0 v 5.13508 h 5.27771 v -5.13508 z m 10.12186,0 v 5.13508 h 5.27771 v -5.13508 z m 10.121338,0 v 5.13508 h 5.277718 v -5.13508 z m -30.364548,8.16746 v 3.49436 h 5.27771 v -3.49436 z m 10.12135,0 v 3.49436 h 5.27771 v -3.49436 z m 10.12186,0 v 3.49436 h 5.27771 v -3.49436 z m 10.121338,0 v 3.49436 h 5.277718 v -3.49436 z"
       id="rect1149-4"
       inkscape:connector-curvature="0" />
    <path
       style="fill:#0033ff;fill-opacity:1;stroke:#ffd700;stroke-width:0.79375;stroke-linecap:butt;stroke-linejoin:round;stroke-miterlimit:4;stroke-dasharray:none;stroke-opacity:1"
       d="m -62.882222,114.86549 h 46.84211"
       id="path1147-9-4"
       inkscape:connector-curvature="0" />
    <path
       style="fill:#0033ff;fill-opacity:1;stroke:#ffd700;stroke-width:0.79375;stroke-linecap:butt;stroke-linejoin:round;stroke-miterlimit:4;stroke-dasharray:none;stroke-opacity:1"
       d="m -62.882222,119.7428 h 46.84211"
       id="path1147-9-9"
       inkscape:connector-curvature="0" />
  </g>
</svg>

<svg xmlns="http://www.w3.org/2000/svg" width="514.85" height="596.651" viewBox="0 0 136.221 157.864"><path style="fill:gold;fill-opacity:1;fill-rule:evenodd;stroke:none;stroke-width:1.32291663;stroke-linecap:round;stroke-linejoin:round;stroke-miterlimit:4;stroke-dasharray:none;stroke-opacity:1" d="m67.814 87.799-.308 93.48c-1.501 37.54-31.166 63.04-67.14 63.06-35.943-.046-65.618-25.555-67.141-63.06l-.309-93.48H.364z" transform="translate(67.745 -87.137)"/><path style="opacity:1;fill:#090;fill-opacity:1;fill-rule:evenodd;stroke:#000;stroke-width:5;stroke-linecap:round;stroke-linejoin:round;stroke-miterlimit:4;stroke-dasharray:none;stroke-opacity:1;paint-order:markers fill stroke" d="M257.42 2.5v591.65h.006c135.967-.08 248.085-96.452 253.76-238.34L512.35 2.5H257.42z" transform="scale(.26458)"/><path style="opacity:1;fill:#03f;fill-opacity:1;fill-rule:evenodd;stroke:#000;stroke-width:1.32291663;stroke-linecap:round;stroke-linejoin:round;stroke-miterlimit:4;stroke-dasharray:none;stroke-opacity:1;paint-order:markers fill stroke" d="m-11.573 87.799-.3 90.883c-.917 22.933-12.345 41.37-29.3 52.253 11.46 8.545 25.905 13.384 41.537 13.404V87.8z" transform="translate(67.745 -87.137)"/><path style="opacity:1;fill:#fff;fill-opacity:1;fill-rule:evenodd;stroke:#000;stroke-width:1.32291663;stroke-linecap:round;stroke-linejoin:round;stroke-miterlimit:4;stroke-dasharray:none;stroke-opacity:1;paint-order:markers fill stroke" d="m12.301 87.799.3 90.883c.917 22.933 12.345 41.37 29.3 52.253-11.46 8.545-25.905 13.384-41.537 13.404V87.8z" transform="translate(67.745 -87.137)"/><path style="fill:none;fill-rule:evenodd;stroke:#000;stroke-width:1.32291663;stroke-linecap:round;stroke-linejoin:round;stroke-miterlimit:4;stroke-dasharray:none;stroke-opacity:1" d="m67.814 87.799-.308 93.48c-1.501 37.54-31.166 63.04-67.14 63.06-35.943-.046-65.618-25.555-67.141-63.06l-.309-93.48H.364z" transform="translate(67.745 -87.137)"/><path style="opacity:1;fill:#fff;fill-opacity:1;fill-rule:evenodd;stroke:none;stroke-width:.26458332;stroke-linecap:round;stroke-linejoin:round;stroke-miterlimit:4;stroke-dasharray:none;stroke-opacity:1;paint-order:markers fill stroke" d="M16.926 135.307v21.11h21.11v-1.967H35.72a18.903 18.903 0 0 0-.68-3.407l2.144-.887-1.506-3.635-2.137.885a18.903 18.903 0 0 0-1.939-2.882l1.644-1.644-2.782-2.781-1.64 1.64a18.903 18.903 0 0 0-2.892-1.921l.891-2.152-3.634-1.506-.89 2.148a18.903 18.903 0 0 0-3.404-.673v-2.328zm45.023 0v2.328a18.903 18.903 0 0 0-3.405.673l-.89-2.148-3.634 1.506.891 2.152a18.903 18.903 0 0 0-2.892 1.92l-1.64-1.64-2.782 2.782 1.644 1.644a18.903 18.903 0 0 0-1.939 2.882l-2.137-.885-1.505 3.635 2.143.887a18.903 18.903 0 0 0-.68 3.407h-2.317v1.967h21.11v-21.11zm-41.424 9.799a11.874 11.874 0 0 1 7.703 7.713h-7.703zm39.793 0v7.713h-7.703a11.874 11.874 0 0 1 7.703-7.713z" transform="translate(67.745 -87.137)"/><path style="opacity:1;fill:gold;fill-opacity:1;fill-rule:evenodd;stroke:none;stroke-width:.99999994;stroke-linecap:round;stroke-linejoin:round;stroke-miterlimit:4;stroke-dasharray:none;stroke-opacity:1;paint-order:markers fill stroke" d="M385.227 137.848a124.224 124.224 0 0 0-68.618 38.086h22.284a108.812 108.812 0 0 1 46.334-22.356v-15.73zm45.582.074v15.594a108.812 108.812 0 0 1 46.421 22.418h22.196a124.224 124.224 0 0 0-68.617-38.012zm0 21.017v13.325a90.658 90.658 0 0 1 23.699 9.859h21.69a103.498 103.498 0 0 0-45.39-23.184zm-45.582.08a103.498 103.498 0 0 0-45.39 23.104h21.743a90.658 90.658 0 0 1 23.647-9.9V159.02z" transform="scale(.26458)"/><path style="opacity:1;fill:gold;fill-opacity:1;fill-rule:evenodd;stroke:gold;stroke-width:.99999994;stroke-linecap:round;stroke-linejoin:round;stroke-miterlimit:4;stroke-dasharray:none;stroke-opacity:1;paint-order:markers fill stroke" d="M393.35 152.037a12.595 4.998 51.291 0 0-1.506.484 12.595 4.998 51.291 0 0 3.976 12.956 12.595 4.998 51.291 0 0 11.778 6.703 12.595 4.998 51.291 0 0-3.977-12.955 12.595 4.998 51.291 0 0-10.271-7.188zm30.935 0a4.998 12.595 38.709 0 0-10.271 7.188 4.998 12.595 38.709 0 0-3.977 12.955 4.998 12.595 38.709 0 0 11.777-6.703 4.998 12.595 38.709 0 0 3.977-12.956 4.998 12.595 38.709 0 0-1.506-.484zm-30.935 20.858a12.595 4.998 51.291 0 0-1.506.484 12.595 4.998 51.291 0 0 3.976 12.955 12.595 4.998 51.291 0 0 11.778 6.703 12.595 4.998 51.291 0 0-3.977-12.955 12.595 4.998 51.291 0 0-10.271-7.187zm30.935 0a4.998 12.595 38.709 0 0-10.271 7.187 4.998 12.595 38.709 0 0-3.977 12.955 4.998 12.595 38.709 0 0 11.777-6.703 4.998 12.595 38.709 0 0 3.977-12.955 4.998 12.595 38.709 0 0-1.506-.484zm-30.935 20.859a12.595 4.998 51.291 0 0-1.506.482 12.595 4.998 51.291 0 0 3.976 12.955 12.595 4.998 51.291 0 0 11.778 6.705 12.595 4.998 51.291 0 0-3.977-12.957 12.595 4.998 51.291 0 0-10.271-7.185zm30.935 0a4.998 12.595 38.709 0 0-10.271 7.185 4.998 12.595 38.709 0 0-3.977 12.957 4.998 12.595 38.709 0 0 11.777-6.705 4.998 12.595 38.709 0 0 3.977-12.955 4.998 12.595 38.709 0 0-1.506-.482zm-28.896 19.814a56.95 56.95 0 0 0 10.177 21.489v27.707h6.504v-27.707a56.915 56.915 0 0 0 10.178-21.489 26.62 26.62 0 0 1-7.492 6.502 26.583 26.583 0 0 1-5.938 2.545 26.581 26.581 0 0 1-5.937-2.545 26.62 26.62 0 0 1-7.492-6.502z" transform="scale(.26458)"/><path style="fill:none;stroke:gold;stroke-width:1.05833328;stroke-linecap:butt;stroke-linejoin:miter;stroke-miterlimit:4;stroke-dasharray:none;stroke-opacity:1" d="M40.421 128.1v-18.407M42.537 126.99v-17.297M38.305 126.99v-17.297M44.468 125.879v-16.186M36.375 125.879v-16.186" transform="translate(67.745 -87.137)"/><path style="opacity:1;fill:#03f;fill-opacity:1;fill-rule:evenodd;stroke:gold;stroke-width:1.32291663;stroke-linecap:round;stroke-linejoin:round;stroke-miterlimit:4;stroke-dasharray:none;stroke-opacity:1;paint-order:markers fill stroke" d="M-63.038 135.398h47.153v21.089h-47.153z" transform="translate(67.745 -87.137)"/><path style="fill:#03f;stroke:gold;stroke-width:1.32291663;stroke-linecap:round;stroke-linejoin:round;stroke-miterlimit:4;stroke-dasharray:none;stroke-opacity:1;fill-opacity:1" d="M-41.942 105.387v3.853h-1.52v8.213h-1.218v4.156h-6.489a121.896 121.896 0 0 0-11.869 13.79H-15.885a121.911 121.911 0 0 0-11.87-13.79h-6.488v-4.156h-1.217v-8.213h-1.52v-3.853h-2.481z" transform="translate(67.745 -87.137)"/><path style="fill:#03f;stroke:gold;stroke-width:1.05833333;stroke-linecap:butt;stroke-linejoin:round;stroke-miterlimit:4;stroke-dasharray:none;stroke-opacity:1;fill-opacity:1" d="M-62.882 129.923h46.842" transform="translate(67.745 -87.137)"/><path style="opacity:1;fill:gold;fill-opacity:1;fill-rule:evenodd;stroke:gold;stroke-width:.26458332;stroke-linecap:round;stroke-linejoin:round;stroke-miterlimit:4;stroke-dasharray:none;stroke-opacity:1;paint-order:markers fill stroke" d="M-57.282 140.16v5.135h5.277v-5.135zm10.121 0v5.135h5.278v-5.135zm10.122 0v5.135h5.278v-5.135zm10.121 0v5.135h5.278v-5.135zm-30.364 8.167v3.494h5.277v-3.494zm10.121 0v3.494h5.278v-3.494zm10.122 0v3.494h5.278v-3.494zm10.121 0v3.494h5.278v-3.494z" transform="translate(67.745 -87.137)"/><path style="fill:#03f;fill-opacity:1;stroke:gold;stroke-width:.79375;stroke-linecap:butt;stroke-linejoin:round;stroke-miterlimit:4;stroke-dasharray:none;stroke-opacity:1" d="M-62.882 114.865h46.842M-62.882 119.743h46.842" transform="translate(67.745 -87.137)"/></svg>
